X:1
T:There’ll Be No Dark Valley
T:There’ll Be No Dark Valley
T:Ira David Sankey
T:William Orcutt Cushing, 1896
T:Public Domain Courtesy of the Cyber Hymnal™
T:Public Domain Courtesy of the Cyber Hymnal™
C:Ira David Sankey
Z:Public Domain
Z:Courtesy of the Cyber Hymnal™
%%score ( 1 2 ) ( 3 4 )
L:1/8
Q:1/4=110
M:4/4
K:F
V:1 treble 
V:2 treble 
V:3 bass 
V:4 bass 
V:1
 F>[FG] | [FA]2 C2 [A,C] [A,C]2 [A,C] | [B,D]2 [DF]2 [CF]2 [CF]>[CG] | %3
w: 1.~There’ll be|no dark val- ley when|Je- sus comes, There’ll be|
w: 2.~There’ll be|no more sor- row when|Je- sus comes, There’ll be|
w: 3.~There’ll be|no more weep- ing when|Je- sus comes, There’ll be|
w: 4.~There’ll be|songs of greet- ing when|Je- sus comes, There’ll be|
 [FA]2 [Ac]2 [Bd] [Ac]2 [FA] | [FA]2 [EG]2 [EG]2 F>[FG] | [FA]2 C2 [A,C] [A,C]2 [A,C] | %6
w: no dark val- ley when|Je- sus comes; There’ll be|no dark val- ley when|
w: no more sor- row when|Je- sus comes; But a|glor- ious mor- row when|
w: no more weep- ing when|Je- sus comes; But a|bless- èd reap- ing when|
w: songs of greet- ing when|Je- sus comes; And a|joy- ful meet- ing when|
 [B,D]2 [DF]2 [CF]2 [EG]2 | [FA] [Ac]2 F [FA]2 [EG]2 | F6 ||"^Refrain" [FA]2 | %10
w: Je- sus comes To|ga- ther His loved ones|home.||
w: Je- sus comes To|ga- ther His loved ones|home.|To|
w: Je- sus comes To|ga- ther His loved ones|home.||
w: Je- sus comes To|ga- ther His loved ones|home.||
 [Fc] [Fc]2 [Fc] (dc) [FA]2 | c6 (A>B) | [Fc] [Fc]2 [Af] [Ge]2 [Fd]2 | c6 [Ec]>[Ed] | %14
w: ||||
w: ga- ther His loved * ones|home, To *|ga- ther His loved ones|home; There’ll be|
w: ||||
w: ||||
 [Fc]2 [CF]2 [CA] [CA]2 [A,C] | [B,D]2 [DF]2 [CF]2 [EG]2 | [FA] [Ac]2 F [FA]2 [EG]2 | F6 |] %18
w: ||||
w: no dark val- ley when|Je- sus comes To|ga- ther His loved ones|home.|
w: ||||
w: ||||
V:2
 F3/2 x/ | x2 C2 x4 | x8 | x8 | x6 F3/2 x/ | x2 C2 x4 | x8 | x3 F x4 | F6 || x2 | x4 F2 x2 | %11
 (F2 E2 F2) F2 | x8 | (E2 G2 F2) x2 | x8 | x8 | x3 F x4 | F6 |] %18
V:3
 [F,A,]>[F,B,] | [F,C]2 [F,A,]2 F, F,2 F, | [B,,F,]2 [B,,F,]2 [F,A,]2 [F,A,]>[F,B,] | %3
 [F,C]2 [F,F]2 [F,F] [F,F]2 [F,C] | [C,C]2 [C,C]2 [C,C]2 [F,A,]>[F,B,] | [F,C]2 [F,A,]2 F, F,2 F, | %6
 [B,,F,]2 [B,,F,]2 [A,,F,]2 [C,C]2 | [F,C] [F,F]2 [F,A,] [C,C]2 [C,B,]2 | [F,A,]6 || [F,C]2 | %10
 [F,A,] [F,A,]2 [F,A,] (B,A,) [F,C]2 | ([F,A,]2 [G,B,]2 [A,C]2) (F,>G,) | %12
 [F,A,] [F,A,]2 [F,C] [G,C]2 [G,=B,]2 | (C2 B,2 A,2) [C,G,]>[C,B,] | [F,A,]2 [F,A,]2 F, F,2 F, | %15
 [B,,F,]2 [B,,F,]2 [A,,F,]2 [C,C]2 | [F,C] [F,F]2 [F,A,] [C,C]2 [C,B,]2 | [F,A,]6 |] %18
V:4
 x2 | x4 F, F,2 F, | x8 | x8 | x8 | x4 F, F,2 F, | x8 | x8 | x6 || x2 | x4 F,2 x2 | x6 F,2 | x8 | %13
 C,6 x2 | x4 F, F,2 F, | x8 | x8 | x6 |] %18

